X:759
T:The one legged man
R:Jig
O:Ireland
B:O'Neill's 938
S:O'Neill's 938
Z:Transcription:Tom Keays, chords:Mike Long
M:6/8
L:1/8
K:D
"D"AFA DFA|DFA DFA|AFA DFA|"D"DFA "G"Bcd|\
"D"AFA DFA|DFA DFA|"D"def "C/A"gea|"G"fdB Bcd:|
|:"D"def a2f|"G"b2g "D"a2f|"D"def a2f|"D"afd "A"edB|\
"D"def a2f|"G"b2g "D"a2f|"D"def "A"gea|"G"fdB Bcd:|
